packages/kaspersky-hexa-ui-icons/src/iconsSVGs/24/Android2.svg

<svg width="24" height="24" viewBox="0 0 24 24" fill="none" xmlns="http://www.w3.org/2000/svg">
<path fill-rule="evenodd" clip-rule="evenodd" d="M6.53897 3.62043C5.57609 4.81953 5 6.34249 5 8V18.4C5 19.8359 6.16406 21 7.6 21H8V22C8 22.5523 8.44772 23 9 23C9.55228 23 10 22.5523 10 22V21H14V22C14 22.5523 14.4477 23 15 23C15.5523 23 16 22.5523 16 22V21H16.4C17.8359 21 19 19.8359 19 18.4V8C19 6.34249 18.4239 4.81953 17.461 3.62043L18.3743 2.70711C18.7649 2.31659 18.7649 1.68342 18.3743 1.2929C17.9838 0.902375 17.3506 0.902376 16.9601 1.2929L15.999 2.25401C14.8654 1.46355 13.4868 1 12 1C10.5132 1 9.13463 1.46355 8.00098 2.25401L7.03988 1.2929C6.64936 0.902376 6.01619 0.902375 5.62567 1.2929C5.23514 1.68342 5.23514 2.31659 5.62566 2.70711L6.53897 3.62043ZM16.4 19C16.7314 19 17 18.7314 17 18.4V11H7V18.4C7 18.7314 7.26863 19 7.6 19H16.4ZM7 8C7 5.23858 9.23858 3 12 3C14.7614 3 17 5.23858 17 8V9H7V8Z" fill="black"/>
<path d="M3 8C3.55228 8 4 8.44772 4 9V14C4 14.5523 3.55228 15 3 15C2.44772 15 2 14.5523 2 14V9C2 8.44772 2.44772 8 3 8Z" fill="black"/>
<path d="M22 8.99999C22 8.44771 21.5523 7.99999 21 7.99999C20.4477 7.99999 20 8.44771 20 8.99999V14C20 14.5523 20.4477 15 21 15C21.5523 15 22 14.5523 22 14V8.99999Z" fill="black"/>
</svg>

<svg xmlns="http://www.w3.org/2000/svg" width="24" height="24" fill="none" viewBox="0 0 24 24"><path fill="#000" fill-rule="evenodd" d="M6.539 3.6204C5.576 4.8195 5 6.3424 5 8v10.4C5 19.8359 6.164 21 7.6 21H8v1c0 .5523.4477 1 1 1s1-.4477 1-1v-1h4v1c0 .5523.4477 1 1 1s1-.4477 1-1v-1h.4c1.4359 0 2.6-1.1641 2.6-2.6V8c0-1.6575-.5761-3.1805-1.539-4.3796l.9133-.9133c.3906-.3905.3906-1.0237 0-1.4142s-1.0237-.3905-1.4142 0l-.9611.9611C14.8654 1.4635 13.4868 1 12 1s-2.8654.4635-3.999 1.254l-.9611-.9611c-.3905-.3905-1.0237-.3905-1.4142 0-.3906.3905-.3906 1.0237 0 1.4142zM16.4 19a.6.6 0 0 0 .6-.6V11H7v7.4a.6.6 0 0 0 .6.6zM7 8c0-2.7614 2.2386-5 5-5s5 2.2386 5 5v1H7z" clip-rule="evenodd"/><path fill="#000" d="M3 8c.552 0 1 .448 1 1v5c0 .552-.448 1-1 1s-1-.448-1-1V9c0-.552.448-1 1-1m19 1c0-.552-.448-1-1-1s-1 .448-1 1v5c0 .552.448 1 1 1s1-.448 1-1z"/></svg>
